X: 0
T: The Congress
C: Trad (Irish)
M: 4/4
L: 1/8
K: G
|:"Am" eAAG A2 (3Bcd | "Am" eaaf "G" gedg | "F/Am" eA ~A2 eA ~A2 | "G" BG ~G2       BGBd |
"Am" eAAG A2    Bd | "Am" eaaf "G" gedB | "F" cBcd        eged | "E/G" cABG "Am" A2 Bd :|
|:"Am" eaag ab    ag | eaag          egdg | "G" egdg        egdg | "Em" eaaf        gedg |
"Am" eaag a2    ag | "Am" eaaf "G" gedB | "F" cBcd        eged | "E/G" cABG "Am" A2 Bd :|